extension/img/icon.svg

<svg width="200" height="200" fill="none" version="1.1" viewBox="0 0 200 200" xmlns="http://www.w3.org/2000/svg">
 <desc>Created with Pixso.</desc>
 <radialGradient id="radial" cx="0" cy="0" r="1" gradientTransform="translate(121.99 83.684) rotate(130.63) scale(125.17 130.5)" gradientUnits="userSpaceOnUse">
  <stop stop-color="#001140" offset=".015285"/>
  <stop stop-color="#000A24" offset="1"/>
 </radialGradient>
 <path id="icon" d="m199.49 99.18c0 55.22-44.78 100-100 100-55.23 0-100-44.78-100-100 0-55.23 44.77-100 100-100 55.22 0 100 44.77 100 100z" fill="url(#radial)" fill-rule="evenodd"/>
 <path d="m185.33 78.08c1.14-0.27 1.85-1.39 1.62-2.52-0.17-0.88-0.87-1.56-1.75-1.71l-12.33-2.14-14.38-2.51c-0.74-0.12-1.08-0.98-0.64-1.58l8.68-11.7 6.72-9.08c0.54-0.73 0.49-1.73-0.12-2.4-0.56-0.62-1.47-0.8-2.23-0.44l-8.09 3.87-14.48 6.93c-0.7 0.33-1.51-0.23-1.43-1l1.59-15.92 1.34-13.44c0.07-0.72-0.29-1.42-0.92-1.78-0.88-0.5-1.99-0.21-2.51 0.66l-4.68 7.89-8.89 15.01c-0.42 0.7-1.45 0.64-1.78-0.1l-7.13-15.92-9.03-20.19c-0.28-0.62-0.89-1.01-1.57-1.01-1.01 0-1.81 0.88-1.7 1.89l1.29 11.75 2.37 21.55c0.09 0.89-0.93 1.45-1.63 0.89l-16.97-13.54-24.11-19.23c-0.5-0.39-1.15-0.52-1.75-0.34-1.32 0.38-1.83 1.98-0.97 3.05l10.85 13.58 18.95 23.73c0.62 0.78-0.16 1.88-1.1 1.57l-28.86-9.58-33.12-11c-0.91-0.3-1.92-0.03-2.55 0.68-1.02 1.14-0.72 2.92 0.6 3.68l28.82 16.35 25.35 14.4c0.85 0.48 0.57 1.78-0.42 1.86l-76.79 6.34c-1.27 0.1-2.32 1.05-2.54 2.3-0.28 1.6 0.85 3.1 2.46 3.28l58.81 6.39 21.24 2.31c0.88 0.09 1.21 1.2 0.53 1.76l-16.46 13.57-50.89 41.97c-1.15 0.95-1.35 2.62-0.47 3.81 0.83 1.12 2.37 1.47 3.6 0.8l80.75-43.77c0.75-0.41 1.64 0.24 1.46 1.08l-3.94 18.99-11.74 56.62c-0.35 1.68 0.94 3.26 2.66 3.26 1.09 0 2.07-0.65 2.5-1.65l21.39-50.16 9.36-21.95c0.36-0.84 1.58-0.79 1.87 0.08l7.52 22.64 10.47 31.5c0.48 1.46 2.26 2 3.48 1.07 0.63-0.48 0.96-1.27 0.86-2.06l-3.59-26.72-3.95-29.37c-0.13-0.98 1.09-1.54 1.75-0.79l19.67 22.22 7.28 8.24c0.87 0.98 2.44 0.86 3.14-0.25 0.38-0.6 0.41-1.36 0.07-1.98l-10.31-18.87-11.51-21.06c-0.44-0.82 0.36-1.74 1.23-1.42l28.05 10.34c1.23 0.45 2.55-0.39 2.66-1.69 0.05-0.68-0.25-1.34-0.8-1.75l-12.76-9.38-14.2-10.43c-0.69-0.5-0.47-1.58 0.36-1.78l17.14-4.11 6.6-1.59z" fill="#FFBC0D" fill-rule="evenodd"/>
</svg>

<svg width="200.000000" height="200.000000" viewBox="0 0 200 200" fill="none" xmlns="http://www.w3.org/2000/svg" xmlns:xlink="http://www.w3.org/1999/xlink">
	<desc>
			Created with Pixso.
	</desc>
	<defs>
		<linearGradient x1="-0.000015" y1="129.534668" x2="192.545242" y2="55.034721" id="paint_linear_8_6_0" gradientUnits="userSpaceOnUse">
			<stop stop-color="#C4C4C4"/>
			<stop stop-color="#363636"/>
			<stop offset="1.000000" stop-color="#11100F"/>
		</linearGradient>
		<linearGradient x1="9.045284" y1="146.034698" x2="186.545303" y2="49.534721" id="paint_linear_8_6_1" gradientUnits="userSpaceOnUse">
			<stop stop-color="#11100F"/>
			<stop offset="0.997783" stop-color="#383837"/>
		</linearGradient>
	</defs>
	<circle id="Эллипс 1" cx="100.000000" cy="100.000000" r="100.000000" fill="url(#paint_linear_8_6_0)" fill-opacity="1.000000"/>
	<circle id="Эллипс 1" cx="100.000000" cy="100.000000" r="99.000000" stroke="url(#paint_linear_8_6_1)" stroke-opacity="1.000000" stroke-width="2.000000"/>
	<path id="path" d="M185.33 78.08C186.47 77.81 187.18 76.69 186.95 75.56C186.78 74.68 186.08 74 185.2 73.85L172.87 71.71L158.49 69.19C157.75 69.08 157.41 68.22 157.85 67.62L166.53 55.92L173.25 46.84C173.79 46.11 173.74 45.11 173.13 44.44C172.57 43.82 171.66 43.64 170.9 44L162.81 47.87L148.33 54.8C147.63 55.13 146.82 54.57 146.89 53.8L148.49 37.88L149.83 24.44C149.89 23.72 149.53 23.02 148.91 22.66C148.03 22.16 146.92 22.45 146.39 23.32L141.72 31.21L132.83 46.22C132.41 46.92 131.38 46.86 131.05 46.12L123.92 30.2L114.89 10.01C114.61 9.39 114 9 113.32 9C112.31 9 111.51 9.88 111.62 10.89L112.91 22.64L115.28 44.19C115.37 45.08 114.35 45.64 113.65 45.08L96.68 31.54L72.57 12.31C72.07 11.92 71.42 11.79 70.82 11.97C69.5 12.35 68.99 13.95 69.85 15.02L80.69 28.6L99.65 52.33C100.27 53.11 99.49 54.21 98.55 53.9L69.69 44.32L36.57 33.32C35.66 33.02 34.65 33.29 34.02 34C33 35.14 33.3 36.91 34.62 37.68L63.44 54.03L88.79 68.43C89.64 68.91 89.36 70.21 88.37 70.29L11.58 76.62C10.31 76.73 9.26 77.68 9.04 78.93C8.76 80.53 9.89 82.03 11.5 82.21L70.31 88.6L91.55 90.91C92.43 91 92.76 92.11 92.08 92.67L75.62 106.24L24.73 148.21C23.58 149.16 23.38 150.83 24.26 152.02C25.09 153.14 26.63 153.49 27.86 152.82L108.61 109.05C109.36 108.64 110.25 109.29 110.07 110.13L106.13 129.12L94.39 185.74C94.04 187.42 95.33 189 97.05 189C98.14 189 99.12 188.35 99.55 187.35L120.94 137.19L130.3 115.24C130.66 114.4 131.88 114.45 132.17 115.32L139.69 137.96L150.16 169.46C150.64 170.92 152.42 171.46 153.64 170.53C154.27 170.05 154.6 169.26 154.5 168.47L150.91 141.75L146.96 112.38C146.83 111.4 148.05 110.84 148.71 111.59L168.38 133.81L175.66 142.05C176.53 143.03 178.1 142.91 178.8 141.8C179.18 141.2 179.21 140.44 178.87 139.82L168.56 120.95L157.05 99.89C156.61 99.07 157.41 98.15 158.28 98.47L186.33 108.81C187.56 109.26 188.88 108.42 188.99 107.12C189.04 106.44 188.74 105.78 188.19 105.37L175.43 95.99L161.23 85.56C160.53 85.06 160.75 83.98 161.59 83.78L178.73 79.67L185.33 78.08Z" fill="#FED42B" fill-opacity="1.000000" fill-rule="evenodd"/>
</svg>
